src/icons/System/24/Rating_3_24.svg

<?xml version="1.0" encoding="utf-8"?>
<!-- Generator: Adobe Illustrator 23.0.1, SVG Export Plug-In . SVG Version: 6.00 Build 0)  -->
<svg version="1.1" id="Layer_1" xmlns="http://www.w3.org/2000/svg" xmlns:xlink="http://www.w3.org/1999/xlink" x="0px" y="0px"
	 viewBox="0 0 32 32" style="enable-background:new 0 0 32 32;" xml:space="preserve">
<title>Source/System Icons/24/Rating_3_24</title>
<desc>Created with Sketch.</desc>
<path d="M16,28C9.4,28,4,22.6,4,16S9.4,4,16,4s12,5.4,12,12S22.6,28,16,28z M16,26c5.5,0,10-4.5,10-10S21.5,6,16,6S6,10.5,6,16
	S10.5,26,16,26z M10.9,19.8l0.3-2l9,1.3l-0.3,2L10.9,19.8z M12.5,15c-0.8,0-1.5-0.7-1.5-1.5s0.7-1.5,1.5-1.5s1.5,0.7,1.5,1.5
	S13.3,15,12.5,15z M19.5,15c-0.8,0-1.5-0.7-1.5-1.5s0.7-1.5,1.5-1.5s1.5,0.7,1.5,1.5S20.3,15,19.5,15z"/>
</svg>

<?xml version="1.0" encoding="UTF-8"?>
<svg viewBox="0 0 32 32" version="1.1" xmlns="http://www.w3.org/2000/svg" xmlns:xlink="http://www.w3.org/1999/xlink">
    <!-- Generator: Sketch 51.2 (57519) - http://www.bohemiancoding.com/sketch -->
    <title>Source/System Icons/24/Rating_3_24</title>
    <desc>Created with Sketch.</desc>
    <defs>
        <path d="M16,28 C9.4,28 4,22.6 4,16 C4,9.4 9.4,4 16,4 C22.6,4 28,9.4 28,16 C28,22.6 22.6,28 16,28 Z M16,26 C21.5,26 26,21.5 26,16 C26,10.5 21.5,6 16,6 C10.5,6 6,10.5 6,16 C6,21.5 10.5,26 16,26 Z M10.9,19.8 L11.2,17.8 L20.2,19.1 L19.9,21.1 L10.9,19.8 Z M12.5,15 C11.7,15 11,14.3 11,13.5 C11,12.7 11.7,12 12.5,12 C13.3,12 14,12.7 14,13.5 C14,14.3 13.3,15 12.5,15 Z M19.5,15 C18.7,15 18,14.3 18,13.5 C18,12.7 18.7,12 19.5,12 C20.3,12 21,12.7 21,13.5 C21,14.3 20.3,15 19.5,15 Z" id="path-1"></path>
    </defs>
    <g id="Source/System-Icons/24/Rating_3_24" stroke="none" stroke-width="1" fill="none" fill-rule="evenodd">
        <mask id="mask-2" fill="white">
            <use xlink:href="#path-1"></use>
        </mask>
        <use id="Combined-Shape" fill="#000000" fill-rule="nonzero" xlink:href="#path-1"></use>
        <g id="Colors/Basic/Fresh-Asphalt" mask="url(#mask-2)" fill="#000000">
            <rect id="Rectangle" x="0" y="0" width="32" height="32"></rect>
        </g>
    </g>
</svg>
